T: Thank God We're Surrounded By Water
M: 6/8
L: 1/8
K: Gdor
DGG GFG | Add d2 e | fef ded | cAG F2 D |DGG GFG | Add d2 e | fed cAF | G3 G2 :|gdg gdg | gab a2 g | fef ded | cAG FGA |B3- BAG | Add d2 e | fed cAF | G3 G2 :|
